X:344
T: KLEINE BLUMEN KLEINE BLAETTER
N: B0404A
O: Europa, Mitteleuropa, Deutschland
R: Liebes - Lied, Liebes - Lust
M: 3/4
L: 1/8
K: G
 | GBddBG | GFF2z2 |
Dcccdc | c2B2z2 |
Geefge | edd2z2 |
cdedcF | A2G2z2

@@@ Tune index: 2147
